X: 7370
T: Cliffs, The
R: hornpipe
M: 4/4
K: Fmajor
AG|FAcA GBdB|cAfc afcA|Bdgb Acfa|(3gaf (3efd (3cdB (3ABG|
FAcA GBdB|cAfc afcA|Bdgb (3agf (3gfe|f2a2 f2:|
|:ef|gc (3ccc gcac|gcc=B c2ga|_bgaf gefa|(3gaf (3efd (3cdB (3ABG|
FAcA GBdB|cAfc afcA|Bdgb (3agf (3gfe|f2a2 f2:|
cA|FAcA FBdB|Acfc afcA|Bdgb Acfa|(3gaf (3efd (3cdB (3ABG|
FAcA FBdB|Acfc AfcA|Bdgb agfe|g2f2 f2:|
|:ef|gc (3ccc c2 ac|gc (3ccc c2ga|bgaf gefa|(3gaf (3efd (3cdB (3ABG|
FAcA FBdB|Acfc afcA|Bdgb agfe|g2f2 f2:|
AG|FAcA GBdB|cAfc afcA|Bdgb Acfa|(3gaf (3efd (3cdB (3ABG|
FAcA GBdB|cAfc afcA|Bdgb agfe|g2f2 f2:|
|:ef|gc~c2 gcac|gccc c2ga|bgaf gefd|ecdB cABG|
FAcA GBdB|cAfc afcA|Bdgb agfe|g2f2 f2:|
AG|FAcA FBdB|cAfc afcA|Bdfb Acfa|(3gaf (3efd (3cdB (3ABG|
FAcA FBdB|cAfc afcA|Bdgb (3agf (3gfe|f2a2 f2:|
|:ef|gc=Bc acBc|bgaf gc=Bc|bgaf gefa|(3gaf (3efd (3cdB (3ABG|
FAcA FBdB|cAfc afcA|Bdgb (3agf (3gfe|f2a2 f2:|

